X: 1
T:The Rainbow
M:C|
L:1/8
Q:80
C:Composed by T. Tully
S:Hornpipe
K:HP
|: {g}d/2e/2|
{g}fA/2{gAGAG}A/2{g}B/2d/2{c}d/2e/2|
{gef}e/2d/2{c}d/2c/2{Gdc}d{g}e/2f/2|  !
{a}g/2B/2{G}B/2g/2{a}f/2A/2{g}A/2f/2|
{gef}e/2d/2{g}c/2d/2{gef}ea/2g/2{g}fA/2{gAGAG}A/2{g}B/2d/2{c}d/2e/2|
{gef}e/2d/2{c}d/2c/2{Gdc}d{g}e/2f/2|  !
{a}g/2B/2{G}B/2g/2{a}f/2A/2{g}A/2f/2|
{gef}e/2d/2{G}d/2c/2{Gdc}d:| |:
{g}f/2g/2|  !
aA/2{gAGAG}A/2a/2A/2{g}d/2e/2|
{g}f/2d/2{g}c/2d/2{gBd}B{g}e/2f/2|
{a}g/2B/2{G}B/2g/2{a}f/2A/2{g}A/2f/2|  !
{gef}e/2d/2{g}c/2d/2{gef}e|1 {g}f/2g/2|1 aA/2{gAGAG}A/2a/2A/2{g}d/2e/2|
{g}f/2d/2{g}c/2d/2{gBd}B{g}e/2f/2|
{a}g/2B/2{G}B/2g/2{a}f/2A/2{g}A/2f/2|  !
{gef}e/2d/2{G}d/2c/2{Gdc}d:| |:
f|
{g}A/2f/2{e}f/2A/2{gAGAG}A/2f/2{g}A/2f/2|
{e}f/2A/2{gAGAG}A/2g/2{Bd}B{gef}e/2d/2|  !
{gcd}c/2a/2{g}a/2c/2{gBd}B/2g/2{f}g/2B/2|
{g}A/2f/2{e}f/2d/2{g}G/2{d}B/2{gef}e/2d/2{g}A/2f/2{e}f/2A/2{gAGAG}A/2f/2
{g}A/2f/2|
{e}f/2A/2{gAGAG}A/2g/2{Bd}B{gef}e/2d/2|  !
{gcd}c/2a/2{g}a/2c/2{gBd}B/2g/2A/2{d}c/2|
{gef}e/2d/2{G}d/2c/2{Gdc}d:| |:
{g}f/2g/2|  !
aA/2{gAGAG}A/2g/2A/2{g}f/2A/2|
{gef}e/2d/2{g}c/2d/2{gBd}B{gef}e/2d/2|
{gcd}c/2a/2{g}a/2c/2{gBd}B/2g/2{f}g/2B/2|  !
{g}A/2f/2{e}f/2d/2{g}G/2{d}B/2{gef}e/2d/2|1 {g}A/2a/2{g}a/2A/2g/2A/2{g}f
/2A/2|
{gef}e/2d/2{g}c/2d/2{gBd}B{gef}e/2d/2|
{gcd}c/2a/2{g}a/2c/2{gBd}B/2g/2A/2{d}c/2|  !
{gef}e/2d/2{G}d/2c/2{Gdc}d:|
